ix/path-square_outline.svg

<svg viewBox="0 0 24 24" fill="none" xmlns="http://www.w3.org/2000/svg" height="1em" width="1em">
  <path d="M15.0392 13.0198C14.8492 13.0198 14.6492 12.9398 14.5092 12.7998L11.2192 9.50978C10.9692 9.25978 10.9292 8.87978 11.1192 8.57978L12.1492 6.94978C12.4792 6.41978 12.9992 6.08978 13.5892 6.02978C14.2392 5.95978 14.9192 6.21978 15.4392 6.73978L17.2892 8.58978C17.7892 9.08978 18.0392 9.76978 17.9692 10.4398C17.8992 11.0398 17.5792 11.5598 17.0792 11.8798L15.4492 12.9098C15.3092 12.9898 15.1692 13.0198 15.0392 13.0198ZM12.6992 8.86978L15.1492 11.3198L16.2692 10.6098C16.4092 10.5198 16.4592 10.3798 16.4692 10.2698C16.4892 10.0598 16.3992 9.81978 16.2192 9.63978L14.3692 7.79978C14.1692 7.59978 13.9392 7.49978 13.7492 7.51978C13.6092 7.53978 13.4992 7.60978 13.4092 7.74978L12.6992 8.86978Z" fill="#292D32"/>
  <path d="M8.2902 17.98C7.6702 17.98 7.0902 17.75 6.6802 17.34C6.2002 16.86 5.9702 16.16 6.0602 15.42L6.6602 10.35C6.8602 8.66003 7.6802 7.98003 9.4002 8.09003L11.7902 8.23003C12.2002 8.26003 12.5202 8.61003 12.4902 9.02003C12.4602 9.43003 12.1102 9.75003 11.7002 9.72003L9.3002 9.59003C8.3302 9.53003 8.2402 9.68003 8.1402 10.53L7.5402 15.6C7.5102 15.88 7.5802 16.13 7.7302 16.28C7.8902 16.44 8.1302 16.51 8.4102 16.47L13.4802 15.87C14.4002 15.76 14.5102 15.62 14.4302 14.74L14.2802 12.32C14.2602 11.91 14.5702 11.55 14.9802 11.53C15.3902 11.5 15.7502 11.82 15.7702 12.23L15.9102 14.62C16.0802 16.3 15.3802 17.16 13.6502 17.36L8.5802 17.96C8.4902 17.98 8.3902 17.98 8.2902 17.98Z" fill="#292D32"/>
  <path d="M7.48969 17.2699C7.29969 17.2699 7.10969 17.1999 6.95969 17.0499C6.66969 16.7599 6.66969 16.2799 6.95969 15.9899L8.80969 14.1399C9.09969 13.8499 9.57969 13.8499 9.86969 14.1399C10.1597 14.4299 10.1597 14.9099 9.86969 15.1999L8.01969 17.0499C7.87969 17.1999 7.68969 17.2699 7.48969 17.2699Z" fill="#292D32"/>
  <path d="M15 22.75H9C3.57 22.75 1.25 20.43 1.25 15V9C1.25 3.57 3.57 1.25 9 1.25H15C20.43 1.25 22.75 3.57 22.75 9V15C22.75 20.43 20.43 22.75 15 22.75ZM9 2.75C4.39 2.75 2.75 4.39 2.75 9V15C2.75 19.61 4.39 21.25 9 21.25H15C19.61 21.25 21.25 19.61 21.25 15V9C21.25 4.39 19.61 2.75 15 2.75H9Z" fill="#292D32"/>
</svg>

<svg viewBox="0 0 24 24" fill="none" xmlns="http://www.w3.org/2000/svg" height="1em" width="1em">
  <path d="M15.04 13.02c-.19 0-.39-.08-.53-.22l-3.29-3.29a.742.742 0 0 1-.1-.93l1.03-1.63c.33-.53.85-.86 1.44-.92.65-.07 1.33.19 1.85.71l1.85 1.85c.5.5.75 1.18.68 1.85-.07.6-.39 1.12-.89 1.44l-1.63 1.03c-.14.08-.28.11-.41.11ZM12.7 8.87l2.45 2.45 1.12-.71c.14-.09.19-.23.2-.34a.813.813 0 0 0-.25-.63L14.37 7.8c-.2-.2-.43-.3-.62-.28-.14.02-.25.09-.34.23l-.71 1.12Z" fill="#292D32"/>
  <path d="M8.29 17.98c-.62 0-1.2-.23-1.61-.64-.48-.48-.71-1.18-.62-1.92l.6-5.07c.2-1.69 1.02-2.37 2.74-2.26l2.39.14c.41.03.73.38.7.79-.03.41-.38.73-.79.7l-2.4-.13c-.97-.06-1.06.09-1.16.94l-.6 5.07c-.03.28.04.53.19.68.16.16.4.23.68.19l5.07-.6c.92-.11 1.03-.25.95-1.13l-.15-2.42c-.02-.41.29-.77.7-.79.41-.03.77.29.79.7l.14 2.39c.17 1.68-.53 2.54-2.26 2.74l-5.07.6c-.09.02-.19.02-.29.02Z" fill="#292D32"/>
  <path d="M7.49 17.27c-.19 0-.38-.07-.53-.22a.754.754 0 0 1 0-1.06l1.85-1.85c.29-.29.77-.29 1.06 0 .29.29.29.77 0 1.06l-1.85 1.85a.71.71 0 0 1-.53.22Z" fill="#292D32"/>
  <path d="M15 22.75H9c-5.43 0-7.75-2.32-7.75-7.75V9c0-5.43 2.32-7.75 7.75-7.75h6c5.43 0 7.75 2.32 7.75 7.75v6c0 5.43-2.32 7.75-7.75 7.75Zm-6-20C4.39 2.75 2.75 4.39 2.75 9v6c0 4.61 1.64 6.25 6.25 6.25h6c4.61 0 6.25-1.64 6.25-6.25V9c0-4.61-1.64-6.25-6.25-6.25H9Z" fill="#292D32"/>
</svg>
